!!!OTL: Königskinder (2-28) S. 85
!!!id: P0901
**kern
*clefG2
*k[f#c#]
*D:
{4d
=1
4f#
4f#
4f#
=2
2e
4e
=3
2.d
=4
2d}
=5
{4d
=6
4g
4g
4g
=7
4f#
4f#
4f#
=8
[2.e
=9
2e]}
=10
{4a
=11
4a
4b
4a
=12
4dd
4cc#
4b
=13
2a
4b
=14
2a}
=15
{4g
=16
2f#
4d
=17
4e
4f#
4e
=18
[2.d
=19
2d]}
=20
{4a
=21
4a
4b
4a
=22
4dd
4cc#
4b
=23
2a
4b
=24
2a}
=25
{4g
=26
2f#
4d
=27
4e
4f#
4e
=28
[2.d
=29
2d]}
==
*-
!!!minrhy: 4
!!!meters: 3/4 ]  ZZ[6
!!!cut: Königskinder (2-28) S. 85
!!!reg: Lothringen
!!!trd: PINCK, Louis: Verklingende Weisen, Bd 2, Metz 1928
!!!rhy1: X  XXX  X_X  X_.  X_
!!!rhy2: X  XXX  XXX  X_.  ^_
!!!key: P0901  04  D 3/4 ]  ZZ[6
!!!mod: HEPTATONIK IONISCH]  AMBITUS[8
!!!kad: 125151
!!!akz: 3211_4322_5+155_3211_5+155_3211_
!!!fot: 'a__as"b__aw_b__aw_
!!!for: 'a__b__c__d__c__d__
!!!fok: '^__^a_^__Sd_^__Sd_
!! PHRAS[AUFTAKTIG]
!!!fkt: verbotene Liebe, Tod
!! LOTH VKL
!! PR[16] 2K[2] 2G[23] 3K[5] 3G[0] 4A[9] 4Ü[0] 5A[0] 6K[0] 6G[0]
!! 7K[0] 7G[0] 8A[0] MEHR[0] SI[39] ABS[44] SR[25] SP[14]
!! ST[10] 2k[7] 2g[27] 3k[5] 3g[2] 4d[5] 4ü[0] 5d[0] 6k[0] 6g[0]
!! 7k[0] 7g[0] 8d[0] mehr[0] si[45] dm[-6] sr[34] sp[11]
!! 1F[2] 2F[40] 3F[45] 4F[4] LF[0] 2P[2] 3P[6] 4P[0] TRI[0] DF[6] AB[47]
!! TF[0] U3K[0] U3[0] U4[0] U4Ü[0] U5[0] U6K[0] U6[0] U7K[0] U7[0]
!! N1[11] N2K[0] N2[9] N3K[0] N3[13] N4[9] N4Ü[0] N5[27] N6K[0] N6[20]
!!!n7k: 0] N7[7] O1[4] O2K[0] O2[0] O3K[0] O3[0] HÖ[0
